pk/image-files.svg

<svg viewBox="0 0 48 48" fill="none" xmlns="http://www.w3.org/2000/svg" height="1em" width="1em">
  <path d="M10 44H38C39.1046 44 40 43.1046 40 42V14H30V4H10C8.89543 4 8 4.89543 8 6V42C8 43.1046 8.89543 44 10 44Z" fill="#2F88FF" stroke="black" stroke-width="4" stroke-linecap="round" stroke-linejoin="round"/>
  <path d="M30 4L40 14" stroke="black" stroke-width="4" stroke-linecap="round" stroke-linejoin="round"/>
  <circle cx="18" cy="17" r="4" fill="#43CCF8" stroke="white" stroke-width="4" stroke-linecap="round" stroke-linejoin="round"/>
  <path d="M15 28V37H33V21L23.4894 31.5L15 28Z" fill="#43CCF8" stroke="white" stroke-width="4" stroke-linecap="round" stroke-linejoin="round"/>
</svg>

<svg viewBox="0 0 48 48" fill="none" xmlns="http://www.w3.org/2000/svg" height="1em" width="1em">
  <path d="M10 44h28a2 2 0 0 0 2-2V14H30V4H10a2 2 0 0 0-2 2v36a2 2 0 0 0 2 2Z" fill="#2F88FF" stroke="#000" stroke-width="4" stroke-linecap="round" stroke-linejoin="round"/>
  <path d="m30 4 10 10" stroke="#000" stroke-width="4" stroke-linecap="round" stroke-linejoin="round"/>
  <circle cx="18" cy="17" r="4" fill="#43CCF8" stroke="#fff" stroke-width="4" stroke-linecap="round" stroke-linejoin="round"/>
  <path d="M15 28v9h18V21l-9.51 10.5L15 28Z" fill="#43CCF8" stroke="#fff" stroke-width="4" stroke-linecap="round" stroke-linejoin="round"/>
</svg>
